X:1
T:Twirling Dervish Harmony
C:copyright 1998 Jim Thompson 
N:Flute part for Kaubells' tune "Twirling Dervish"
R:Reel
E:14
M:4/4
K:G
|:d4A2d2|B4G2B2|defe d2B2|G4 gfef|
|d4A2d2|B4G2B2|d2B2 G2gf|1 a4 agfe:|2 a4 agag||
E:12
|:a4 e'd'^c'b|a4 d'^c'ba|g4 e'd'c'b|a4 fgab|
|a4 e'd'^c'b|a4 d'^c'ba|g4 e'd'c'b|1 agfe dcBA:|2 agag f4|]
\bigskip              % a bit of space
